X: 040512
T: Denny Mescall's
S: "Treoir" 
Z: B.Black
M: 12/8
L: 1/8
R: slide
K: G
D | B3 BAB dBA G2 D | GBd gfe dBG A2 A |
B3 BAB dBA G2 A | Bdd B2 A G3 G2 :|
B/d/ | g3 gfe dcB c2 d | eaa a2 b a2 g e2 f |
g3 gfe dcB c2 d |1 efg faf g3 g2 :|\
|2 efg faf g3 b2 ||
